X:1963
T:Boyne Hunt
M:4/4
L:1/8
R:Reel
K:D maj
| A2 FA DAFA | DAFA BE E2 | A2 FA DAFA | ABde fedB
| A2 FA DAFA | DAFA BE E2 | A2 FA DAFA | ABde fd d2 |
| faaf a3 f | g3 a bg e2 | fa a2 bfaf | e2 de fd d2 |
faaf a3 f | gfga bgeg | fgfe d3 B | ABde fd d2 |
